X: 21319
T: Kenneth's Bridge
R: waltz
M: 3/4
K: Dmajor
|:B2 BB AB|dF FE FA|B2 BB AB|df af ed|
B2 BB AB|dF FE F2|D2 df ec|dD FE FA:|
|:G2 EF GA|Bd ea fd|A2 FE FA|dD FE FA|
B2 EF GA|Bd ea fd|A2 FA dD|FE ED E2:|

